src/resource/calendar.svg

<svg width="512" height="512" fill="none" xmlns="http://www.w3.org/2000/svg"><path d="M452 40h-24V0h-40v40H124V0H84v40H60C26.916 40 0 66.916 0 100v352c0 33.084 26.916 60 60 60h392c33.084 0 60-26.916 60-60V100c0-33.084-26.916-60-60-60zm20 412c0 11.028-8.972 20-20 20H60c-11.028 0-20-8.972-20-20V188h432v264zm0-304H40v-48c0-11.028 8.972-20 20-20h24v40h40V80h264v40h40V80h24c11.028 0 20 8.972 20 20v48z" fill="#424242"/><path d="M116 230H76v40h40v-40zM196 230h-40v40h40v-40zM276 230h-40v40h40v-40zM356 230h-40v40h40v-40zM436 230h-40v40h40v-40zM116 310H76v40h40v-40zM196 310h-40v40h40v-40zM276 310h-40v40h40v-40zM356 310h-40v40h40v-40zM116 390H76v40h40v-40zM196 390h-40v40h40v-40zM276 390h-40v40h40v-40zM356 390h-40v40h40v-40zM436 310h-40v40h40v-40z" fill="#424242"/></svg>

<svg width="512" height="512" viewBox="0 0 512 512" fill="none" xmlns="http://www.w3.org/2000/svg">
<path d="M452 40H428V0H388V40H124V0H84V40H60C26.916 40 0 66.916 0 100V452C0 485.084 26.916 512 60 512H452C485.084 512 512 485.084 512 452V100C512 66.916 485.084 40 452 40ZM472 452C472 463.028 463.028 472 452 472H60C48.972 472 40 463.028 40 452V188H472V452ZM472 148H40V100C40 88.972 48.972 80 60 80H84V120H124V80H388V120H428V80H452C463.028 80 472 88.972 472 100V148Z" fill="#424242"/>
<path d="M116 230H76V270H116V230Z" fill="#424242"/>
<path d="M196 230H156V270H196V230Z" fill="#424242"/>
<path d="M276 230H236V270H276V230Z" fill="#424242"/>
<path d="M356 230H316V270H356V230Z" fill="#424242"/>
<path d="M436 230H396V270H436V230Z" fill="#424242"/>
<path d="M116 310H76V350H116V310Z" fill="#424242"/>
<path d="M196 310H156V350H196V310Z" fill="#424242"/>
<path d="M276 310H236V350H276V310Z" fill="#424242"/>
<path d="M356 310H316V350H356V310Z" fill="#424242"/>
<path d="M116 390H76V430H116V390Z" fill="#424242"/>
<path d="M196 390H156V430H196V390Z" fill="#424242"/>
<path d="M276 390H236V430H276V390Z" fill="#424242"/>
<path d="M356 390H316V430H356V390Z" fill="#424242"/>
<path d="M436 310H396V350H436V310Z" fill="#424242"/>
</svg>
